vsi/move_dark.svg

<svg viewBox="0 0 16 16" fill="none" xmlns="http://www.w3.org/2000/svg" height="1em" width="1em">
  <path fill-rule="evenodd" clip-rule="evenodd" d="M10.2322 10.7071L8.5 12.4393L8.5 9.00001H7.5L7.5 12.4393L5.76777 10.7071L5.06066 11.4142L7.64644 14H8.35355L10.9393 11.4142L10.2322 10.7071ZM5.06066 3.58579L5.76777 4.29289L7.5 2.56066V5.99999L8.5 5.99999L8.5 2.56066L10.2322 4.29289L10.9393 3.58578L8.35355 1H7.64644L5.06066 3.58578L5.06066 3.58579ZM4.79289 5.26776L3.06066 6.99999H6.49999V7.99999H3.06066L4.79289 9.73222L4.08579 10.4393L1.5 7.85355V7.14644L4.08579 4.56065L4.79289 5.26776ZM9.50001 6.99999L12.9393 6.99999L11.2071 5.26776L11.9142 4.56065L14.5 7.14644V7.85354L11.9142 10.4393L11.2071 9.73222L12.9393 7.99999L9.50001 7.99999L9.50001 6.99999Z" fill="#C5C5C5"/>
</svg>

<svg viewBox="0 0 16 16" fill="none" xmlns="http://www.w3.org/2000/svg" height="1em" width="1em">
  <path fill-rule="evenodd" clip-rule="evenodd" d="M10.232 10.707 8.5 12.44V9h-1v3.44l-1.732-1.733-.707.707L7.646 14h.708l2.585-2.586-.707-.707ZM5.061 3.586l.707.707L7.5 2.56V6h1V2.56l1.732 1.733.707-.707L8.354 1h-.708L5.061 3.586Zm-.268 1.682L3.06 7H6.5v1H3.06l1.733 1.732-.707.707L1.5 7.854v-.708l2.586-2.585.707.707ZM9.5 7h3.44l-1.733-1.732.707-.707L14.5 7.146v.708l-2.586 2.585-.707-.707L12.94 8H9.5V7Z" fill="#C5C5C5"/>
</svg>
